X:89
T:Star Of Munster, The
S:The Session: https://thesession.org/tunes/197#setting197
C:Traditional
R:reel
K:Ador
M:4/4
L:1/8
Q:1/4=120
ed|: c2Ac B2GB| AGEF GEDG| EAAB cBcd| eaaf gfed| 
| cBAc BAGB| AGEF GEDG| EAAB cded|1 cABG A2 ed:|2 cABG A2 de |] 
|:eaab ageg| agbg agef| gfga gfef| gfaf gfdf|
|eaab ageg| agbg agef| g2ge a2ga|1 bgaf ge de :|2 bgaf ge e2 |]

